client/favicon/favicon.svg

<svg width="512" height="512" viewBox="0 0 512 512" fill="none" xmlns="http://www.w3.org/2000/svg">
<rect width="512" height="512" rx="50" fill="#2D22CA"/>
<path fill-rule="evenodd" clip-rule="evenodd" d="M389.022 196.521C389.022 185.803 383.304 175.899 374.022 170.54L271 111.06C261.718 105.701 250.282 105.701 241 111.06L137.979 170.54C128.696 175.899 122.979 185.803 122.979 196.521V315.48C122.979 326.197 128.696 336.101 137.979 341.46L241 400.94C250.282 406.299 261.718 406.299 271 400.94L374.022 341.46C383.304 336.101 389.022 326.197 389.022 315.48V196.521ZM256 302.5C281.681 302.5 302.5 281.681 302.5 256C302.5 230.319 281.681 209.5 256 209.5C230.319 209.5 209.5 230.319 209.5 256C209.5 281.681 230.319 302.5 256 302.5Z" fill="white"/>
</svg>

<svg width="512" height="512" fill="none" xmlns="http://www.w3.org/2000/svg">
  <path fill="#2D22CA" d="M0 0h512v512H0z"/>
  <path fill-rule="evenodd" clip-rule="evenodd" d="M389.02 196.52a30 30 0 00-15-25.98L271 111.06a30 30 0 00-30 0l-103.02 59.48a30 30 0 00-15 25.98v118.96a30 30 0 0015 25.98L241 400.94a30 30 0 0030 0l103.02-59.48a30 30 0 0015-25.98V196.52zM256 302.5a46.5 46.5 0 100-93 46.5 46.5 0 000 93z" fill="#fff"/>
</svg>
